templates/flag_icons/uy.svg

<?xml version="1.0" encoding="UTF-8" standalone="no"?>
<svg width="23px" height="17px" viewBox="0 0 23 17" version="1.1" xmlns="http://www.w3.org/2000/svg" xmlns:xlink="http://www.w3.org/1999/xlink">
    <!-- Generator: Sketch 3.7.2 (28276) - http://www.bohemiancoding.com/sketch -->
    <title>UY</title>
    <desc>Created with Sketch.</desc>
    <defs>
        <linearGradient x1="50%" y1="0%" x2="50%" y2="100%" id="linearGradient-1">
            <stop stop-color="#FFFFFF" offset="0%"></stop>
            <stop stop-color="#F0F0F0" offset="100%"></stop>
        </linearGradient>
        <rect id="path-2" x="0" y="0" width="21" height="15" rx="1.5"></rect>
        <filter x="-50%" y="-50%" width="200%" height="200%" filterUnits="objectBoundingBox" id="filter-4">
            <feOffset dx="0" dy="0.5" in="SourceAlpha" result="shadowOffsetOuter1"></feOffset>
            <feGaussianBlur stdDeviation="0.5" in="shadowOffsetOuter1" result="shadowBlurOuter1"></feGaussianBlur>
            <feColorMatrix values="0 0 0 0 0   0 0 0 0 0   0 0 0 0 0  0 0 0 0.16 0" type="matrix" in="shadowBlurOuter1"></feColorMatrix>
        </filter>
        <linearGradient x1="50%" y1="0%" x2="50%" y2="100%" id="linearGradient-5">
            <stop stop-color="#0E4CC6" offset="0%"></stop>
            <stop stop-color="#073DA6" offset="100%"></stop>
        </linearGradient>
        <rect id="path-6" x="0" y="0" width="21" height="15"></rect>
        <filter x="-50%" y="-50%" width="200%" height="200%" filterUnits="objectBoundingBox" id="filter-7">
            <feOffset dx="0" dy="0.5" in="SourceAlpha" result="shadowOffsetOuter1"></feOffset>
            <feGaussianBlur stdDeviation="0.5" in="shadowOffsetOuter1" result="shadowBlurOuter1"></feGaussianBlur>
            <feColorMatrix values="0 0 0 0 0   0 0 0 0 0   0 0 0 0 0  0 0 0 0.16 0" type="matrix" in="shadowBlurOuter1"></feColorMatrix>
        </filter>
        <path d="M10,0 L21,0 L21,2 L10,2 L10,0 Z M10,4 L21,4 L21,6 L10,6 L10,4 Z M10,8 L21,8 L21,10 L10,10 L10,8 Z M0,12 L21,12 L21,14 L0,14 L0,12 Z M0,0 L10,0 L10,10 L0,10 L0,0 Z" id="path-8"></path>
        <filter x="-50%" y="-50%" width="200%" height="200%" filterUnits="objectBoundingBox" id="filter-9">
            <feOffset dx="0" dy="0.5" in="SourceAlpha" result="shadowOffsetOuter1"></feOffset>
            <feColorMatrix values="0 0 0 0 0   0 0 0 0 0   0 0 0 0 0  0 0 0 0.06 0" type="matrix" in="shadowOffsetOuter1"></feColorMatrix>
        </filter>
        <linearGradient x1="50%" y1="0%" x2="50%" y2="100%" id="linearGradient-10">
            <stop stop-color="#FED443" offset="0%"></stop>
            <stop stop-color="#FCD036" offset="100%"></stop>
        </linearGradient>
    </defs>
    <g id="Flag-Kit" stroke="none" stroke-width="1" fill="none" fill-rule="evenodd">
        <g id="UY">
            <g id="AE-Copy-4" transform="translate(1.000000, 1.000000)">
                <mask id="mask-3" fill="white">
                    <use xlink:href="#path-2"></use>
                </mask>
                <g id="Mask">
                    <use fill="black" fill-opacity="1" filter="url(#filter-4)" xlink:href="#path-2"></use>
                    <use fill="url(#linearGradient-1)" fill-rule="evenodd" xlink:href="#path-2"></use>
                </g>
                <g id="Mask-Copy" mask="url(#mask-3)">
                    <use fill="black" fill-opacity="1" filter="url(#filter-7)" xlink:href="#path-6"></use>
                    <use fill="url(#linearGradient-5)" fill-rule="evenodd" xlink:href="#path-6"></use>
                </g>
                <g id="Rectangle-537" mask="url(#mask-3)">
                    <use fill="black" fill-opacity="1" filter="url(#filter-9)" xlink:href="#path-8"></use>
                    <use fill="url(#linearGradient-1)" fill-rule="evenodd" xlink:href="#path-8"></use>
                </g>
                <path d="M5,6.99097645 L4.3324372,7.98746396 L4.16334362,6.80001509 L3.12953059,7.40817467 L3.4923973,6.26495326 L2.2970934,6.36433144 L3.12005018,5.4917665 L2,5.06268022 L3.12005018,4.63359394 L2.2970934,3.761029 L3.4923973,3.86040718 L3.12953059,2.71718577 L4.16334362,3.32534535 L4.3324372,2.13789648 L5,3.13438399 L5.6675628,2.13789648 L5.83665638,3.32534535 L6.87046941,2.71718577 L6.5076027,3.86040718 L7.7029066,3.761029 L6.87994982,4.63359394 L8,5.06268022 L6.87994982,5.4917665 L7.7029066,6.36433144 L6.5076027,6.26495326 L6.87046941,7.40817467 L5.83665638,6.80001509 L5.6675628,7.98746396 L5,6.99097645 Z M5,6.97177113 C6.0543618,6.97177113 6.90909091,6.11704201 6.90909091,5.06268022 C6.90909091,4.00831842 6.0543618,3.15358931 5,3.15358931 C3.9456382,3.15358931 3.09090909,4.00831842 3.09090909,5.06268022 C3.09090909,6.11704201 3.9456382,6.97177113 5,6.97177113 Z M5,6.5 C5.82842712,6.5 6.5,5.82842712 6.5,5 C6.5,4.17157288 5.82842712,3.5 5,3.5 C4.17157288,3.5 3.5,4.17157288 3.5,5 C3.5,5.82842712 4.17157288,6.5 5,6.5 Z" id="Star-28" fill="url(#linearGradient-10)" mask="url(#mask-3)"></path>
                <rect id="Depth" mask="url(#mask-3)" x="0" y="0" width="21" height="15" rx="1.5"></rect>
            </g>
            <path d="M5.25,6 C5.25,6.13015938 5.28315625,6.25257469 5.34148342,6.35926061 C5.4687741,6.59208735 5.71594581,6.75 6,6.75 C6.29833206,6.75 6.55598069,6.57581355 6.67679204,6.32359451 C6.72371895,6.22562474 6.80328369,6.1449585 6.80328369,6" id="Oval-223" stroke="#C7A326" stroke-width="0.25" stroke-linecap="round"></path>
            <circle id="Oval-223" fill="#C6A326" cx="6.5" cy="5.5" r="0.25"></circle>
            <circle id="Oval-223" fill="#C6A326" cx="5.5" cy="5.5" r="0.25"></circle>
        </g>
    </g>
</svg>

<svg width="23" height="17" viewBox="0 0 23 17" xmlns="http://www.w3.org/2000/svg" xmlns:xlink="http://www.w3.org/1999/xlink"><title>UY</title><defs><linearGradient x1="50%" y1="0%" x2="50%" y2="100%" id="c"><stop stop-color="#FFF" offset="0%"/><stop stop-color="#F0F0F0" offset="100%"/></linearGradient><rect id="a" width="21" height="15" rx="1.5"/><filter x="-50%" y="-50%" width="200%" height="200%" filterUnits="objectBoundingBox" id="b"><feOffset dy=".5" in="SourceAlpha" result="shadowOffsetOuter1"/><feGaussianBlur stdDeviation=".5" in="shadowOffsetOuter1" result="shadowBlurOuter1"/><feColorMatrix values="0 0 0 0 0 0 0 0 0 0 0 0 0 0 0 0 0 0 0.16 0" in="shadowBlurOuter1"/></filter><linearGradient x1="50%" y1="0%" x2="50%" y2="100%" id="g"><stop stop-color="#0E4CC6" offset="0%"/><stop stop-color="#073DA6" offset="100%"/></linearGradient><path id="f" d="M0 0h21v15H0z"/><filter x="-50%" y="-50%" width="200%" height="200%" filterUnits="objectBoundingBox" id="e"><feOffset dy=".5" in="SourceAlpha" result="shadowOffsetOuter1"/><feGaussianBlur stdDeviation=".5" in="shadowOffsetOuter1" result="shadowBlurOuter1"/><feColorMatrix values="0 0 0 0 0 0 0 0 0 0 0 0 0 0 0 0 0 0 0.16 0" in="shadowBlurOuter1"/></filter><path d="M10 0h11v2H10V0zm0 4h11v2H10V4zm0 4h11v2H10V8zM0 12h21v2H0v-2zM0 0h10v10H0V0z" id="i"/><filter x="-50%" y="-50%" width="200%" height="200%" filterUnits="objectBoundingBox" id="h"><feOffset dy=".5" in="SourceAlpha" result="shadowOffsetOuter1"/><feColorMatrix values="0 0 0 0 0 0 0 0 0 0 0 0 0 0 0 0 0 0 0.06 0" in="shadowOffsetOuter1"/></filter><linearGradient x1="50%" y1="0%" x2="50%" y2="100%" id="j"><stop stop-color="#FED443" offset="0%"/><stop stop-color="#FCD036" offset="100%"/></linearGradient></defs><g fill="none" fill-rule="evenodd"><g transform="translate(1 1)"><mask id="d" fill="#fff"><use xlink:href="#a"/></mask><use fill="#000" filter="url(#b)" xlink:href="#a"/><use fill="url(#c)" xlink:href="#a"/><g mask="url(#d)"><use fill="#000" filter="url(#e)" xlink:href="#f"/><use fill="url(#g)" xlink:href="#f"/></g><g mask="url(#d)"><use fill="#000" filter="url(#h)" xlink:href="#i"/><use fill="url(#c)" xlink:href="#i"/></g><path d="M5 7l-.67.99-.17-1.19-1.03.6.36-1.14-1.2.1.83-.87L2 5.06l1.12-.43-.82-.87 1.2.1-.37-1.14 1.03.6.17-1.18.67 1 .67-1 .17 1.19 1.03-.61-.36 1.14 1.2-.1-.83.87L8 5.06l-1.12.43.82.87-1.2-.1.37 1.15-1.03-.61-.17 1.19-.67-1zm0-.03a1.9 1.9 0 1 0 0-3.82 1.9 1.9 0 0 0 0 3.82zm0-.47a1.5 1.5 0 1 0 0-3 1.5 1.5 0 0 0 0 3z" fill="url(#j)" mask="url(#d)"/><rect mask="url(#d)" width="21" height="15" rx="1.5"/></g><path d="M5.25 6a.75.75 0 0 0 .75.75c.3 0 .56-.17.68-.43.04-.1.12-.18.12-.32" stroke="#C7A326" stroke-width=".25" stroke-linecap="round"/><circle fill="#C6A326" cx="6.5" cy="5.5" r=".25"/><circle fill="#C6A326" cx="5.5" cy="5.5" r=".25"/></g></svg>
